resources/svg/logos/slack.svg

<svg xmlns="http://www.w3.org/2000/svg" fill="currentColor" stroke="none" viewBox="0 0 24 24"><path d="M6.194 14.644c0 1.16-.943 2.107-2.103 2.107a2.11 2.11 0 0 1-2.104-2.107 2.11 2.11 0 0 1 2.104-2.106h2.103v2.106zm1.061 0c0-1.16.944-2.106 2.104-2.106a2.11 2.11 0 0 1 2.103 2.106v5.274a2.11 2.11 0 0 1-2.103 2.106 2.108 2.108 0 0 1-2.104-2.106v-5.274zm2.104-8.455c-1.16 0-2.104-.948-2.104-2.107s.944-2.106 2.104-2.106a2.11 2.11 0 0 1 2.103 2.106v2.107H9.359zm0 1.06a2.11 2.11 0 0 1 2.103 2.107 2.11 2.11 0 0 1-2.103 2.106H4.092a2.11 2.11 0 0 1-2.104-2.106 2.11 2.11 0 0 1 2.104-2.107h5.267zm8.447 2.107c0-1.16.943-2.107 2.103-2.107a2.11 2.11 0 0 1 2.104 2.107 2.11 2.11 0 0 1-2.104 2.106h-2.103V9.356zm-1.061 0c0 1.16-.944 2.106-2.104 2.106a2.11 2.11 0 0 1-2.103-2.106V4.082a2.11 2.11 0 0 1 2.103-2.106c1.16 0 2.104.946 2.104 2.106v5.274zm-2.104 8.455c1.16 0 2.104.948 2.104 2.107s-.944 2.106-2.104 2.106a2.11 2.11 0 0 1-2.103-2.106v-2.107h2.103zm0-1.06a2.11 2.11 0 0 1-2.103-2.107 2.11 2.11 0 0 1 2.103-2.106h5.268a2.11 2.11 0 0 1 2.104 2.106 2.11 2.11 0 0 1-2.104 2.107h-5.268z"/></svg>

<svg xmlns="http://www.w3.org/2000/svg" fill="currentColor" stroke="none" viewBox="0 0 24 24"><path d="M6.194 14.644c0 1.16-.943 2.107-2.103 2.107-1.158 0-2.104-.947-2.104-2.107 0-1.16.946-2.106 2.104-2.106h2.103V14.644zM7.255 14.644c0-1.16.944-2.106 2.104-2.106 1.156 0 2.103.946 2.103 2.106v5.274c0 1.16-.946 2.106-2.103 2.106-1.16 0-2.104-.946-2.104-2.106V14.644zM9.359 6.189c-1.16 0-2.104-.948-2.104-2.107s.944-2.106 2.104-2.106c1.156 0 2.103.946 2.103 2.106v2.107H9.359zM9.359 7.249c1.156 0 2.103.947 2.103 2.107 0 1.16-.946 2.106-2.103 2.106H4.092c-1.158 0-2.104-.946-2.104-2.106 0-1.16.946-2.107 2.104-2.107H9.359zM17.806 9.356c0-1.16.943-2.107 2.103-2.107 1.158 0 2.104.947 2.104 2.107 0 1.16-.946 2.106-2.104 2.106h-2.103V9.356zM16.745 9.356c0 1.16-.944 2.106-2.104 2.106-1.156 0-2.103-.946-2.103-2.106V4.082c0-1.16.946-2.106 2.103-2.106 1.16 0 2.104.946 2.104 2.106V9.356zM14.641 17.811c1.16 0 2.104.948 2.104 2.107s-.944 2.106-2.104 2.106c-1.156 0-2.103-.946-2.103-2.106v-2.107H14.641zM14.641 16.751c-1.156 0-2.103-.947-2.103-2.107 0-1.16.946-2.106 2.103-2.106h5.268c1.158 0 2.104.946 2.104 2.106 0 1.16-.946 2.107-2.104 2.107H14.641z"/></svg>
